brandFactory_export/3.Masa/WiFi_3Masa.svg

<?xml version="1.0" encoding="UTF-8"?>
<svg width="24px" height="24px" viewBox="0 0 24 24" version="1.1" xmlns="http://www.w3.org/2000/svg" xmlns:xlink="http://www.w3.org/1999/xlink">
    <title>3.Masa/WiFi_3Masa</title>
    <g id="Symbols" stroke="none" stroke-width="1" fill="none" fill-rule="evenodd">
        <g id="3.Masa/WiFi_3Masa" fill="#5CB615" fill-rule="nonzero">
            <path d="M11.8285714,16.4336134 C12.6319328,16.4336134 13.2705882,16.6554622 13.7277311,17.0957983 C14.2016807,17.5529412 14.4436975,18.2117647 14.4436975,19.0487395 C14.4436975,19.8857143 14.2016807,20.5445378 13.7277311,21.0016807 C13.2705882,21.4420168 12.6319328,21.6638655 11.8285714,21.6638655 C11.0252101,21.6638655 10.3865546,21.4420168 9.92941176,21.0016807 C9.45546218,20.5445378 9.21344538,19.8857143 9.21344538,19.0487395 C9.21344538,18.2117647 9.45546218,17.5529412 9.92941176,17.0957983 C10.3865546,16.6554622 11.0252101,16.4336134 11.8285714,16.4336134 Z M11.8722689,11.8319328 C12.9613445,11.8319328 14.0201681,12.0470588 15.0184874,12.4672269 C15.9394958,12.8537815 16.7731092,13.4084034 17.4957983,14.107563 C17.7613445,14.3663866 17.7680672,14.7932773 17.5092437,15.0588235 C17.2504202,15.3243697 16.8235294,15.3310924 16.5579832,15.0722689 C15.9563025,14.487395 15.2605042,14.0268908 14.4941176,13.7042017 C13.6638655,13.3512605 12.7798319,13.1731092 11.8722689,13.1731092 C10.9411765,13.1731092 10.0436975,13.3579832 9.19663866,13.7243697 C8.41680672,14.0605042 7.71428571,14.5411765 7.1092437,15.1462185 C6.97478992,15.2840336 6.80336134,15.3478992 6.63193277,15.3478992 C6.4605042,15.3478992 6.28907563,15.2806723 6.15798319,15.1495798 C5.89579832,14.887395 5.89579832,14.4605042 6.15798319,14.1983193 C6.88403361,13.4722689 7.72436975,12.897479 8.66218487,12.4941176 C9.67731092,12.0537815 10.7596639,11.8319328 11.8722689,11.8319328 Z M11.8756303,6.92773109 C13.5260504,6.92773109 15.1260504,7.25042017 16.6386555,7.88571429 C18.0638655,8.4907563 19.3512605,9.34453782 20.4605042,10.4336134 C20.7260504,10.692437 20.7294118,11.1193277 20.4705882,11.3848739 C20.2117647,11.6504202 19.7848739,11.6537815 19.5193277,11.394958 C18.5310924,10.4268908 17.3882353,9.66386555 16.1176471,9.12941176 C14.7731092,8.56134454 13.3445378,8.27563025 11.8756303,8.27563025 C10.3865546,8.27563025 8.94453782,8.56806723 7.58991597,9.14621849 C6.30588235,9.69411765 5.14957983,10.4739496 4.15462185,11.4621849 L4.14117647,11.4756303 C4.01008403,11.610084 3.83865546,11.6739496 3.66386555,11.6739496 C3.49243697,11.6739496 3.3210084,11.6067227 3.18991597,11.4756303 C2.92773109,11.2134454 2.92773109,10.7865546 3.18991597,10.5243697 L3.20672269,10.507563 C4.32268908,9.39495798 5.62016807,8.5210084 7.06218487,7.90588235 C8.58487395,7.25714286 10.205042,6.92773109 11.8756303,6.92773109 Z M11.8789916,2.02689076 C14.087395,2.02689076 16.2352941,2.45714286 18.2588235,3.30756303 C20.1915966,4.1210084 21.9327731,5.28067227 23.4252101,6.75294118 C23.6907563,7.01512605 23.6941176,7.43865546 23.4319328,7.70420168 C23.1697479,7.9697479 22.7462185,7.97310924 22.4806723,7.71092437 C21.1092437,6.35966387 19.512605,5.29411765 17.7378151,4.54789916 C15.8789916,3.76806723 13.9058824,3.37142857 11.8789916,3.37142857 C9.83193277,3.37142857 7.85210084,3.77142857 5.98655462,4.56134454 C4.19495798,5.3210084 2.5815126,6.40336134 1.19327731,7.78487395 L1.17310924,7.80504202 C1.04537815,7.93613445 0.870588235,8.00336134 0.699159664,8.00336134 C0.527731092,8.00336134 0.356302521,7.9394958 0.225210084,7.80840336 C-0.03697479,7.54621849 -0.03697479,7.11932773 0.225210084,6.85714286 L0.245378151,6.83361345 C1.75798319,5.33109244 3.51260504,4.1512605 5.46218487,3.32436975 C7.49243697,2.46386555 9.65378151,2.02689076 11.8789916,2.02689076 Z" id="WiFi_3Masa"></path>
        </g>
    </g>
</svg>

<svg width="24" height="24" viewBox="0 0 24 24" xmlns="http://www.w3.org/2000/svg"><path d="M11.829 16.434c.803 0 1.442.221 1.899.662.474.457.716 1.116.716 1.953s-.242 1.496-.716 1.953c-.457.44-1.096.662-1.9.662-.803 0-1.441-.222-1.899-.662-.474-.457-.716-1.116-.716-1.953s.242-1.496.716-1.953c.458-.44 1.096-.662 1.9-.662zm.043-4.602a8.07 8.07 0 015.624 2.276.674.674 0 01-.938.964 6.66 6.66 0 00-2.064-1.368 6.67 6.67 0 00-2.622-.53 6.69 6.69 0 00-4.763 1.972.66.66 0 01-.477.202.674.674 0 01-.474-1.15 7.998 7.998 0 012.504-1.704 8.026 8.026 0 013.21-.662zm.004-4.904a12.227 12.227 0 018.585 3.506.674.674 0 01-.942.961 10.858 10.858 0 00-3.401-2.266 10.843 10.843 0 00-4.242-.853c-1.49 0-2.931.292-4.286.87a10.962 10.962 0 00-3.435 2.316l-.014.014a.67.67 0 01-.951 0 .674.674 0 010-.952l.017-.016a12.236 12.236 0 018.669-3.58zm.003-4.901c2.208 0 4.356.43 6.38 1.28a16.37 16.37 0 015.166 3.446.67.67 0 01.007.951.67.67 0 01-.951.007 15.072 15.072 0 00-10.602-4.34c-2.047 0-4.027.4-5.892 1.19a15.146 15.146 0 00-4.794 3.224l-.02.02a.666.666 0 01-.948.003.674.674 0 010-.95l.02-.024a16.53 16.53 0 015.217-3.51 16.362 16.362 0 016.417-1.297z" fill="#5CB615" fill-rule="nonzero"/></svg>
